X:202
T:Chickadee's Polka
M:4/4
L:1/4
K:G
G/2A/2|"G"BG DG/2A/2|BG DG/2A/2|"G"BG "C"E/F/G|E2 "G"D2|"C"CE ED/C/|
"G"B,D GB|"A7"BA EB|"D7"BA AG/A/|"G"BG DG/2A/2|BG DG/2A/2|
"G"BG "C"E/F/G|"C"E2 "G"D2|"C"EG ce|"G"ed Bd/2c/2|"A7"BA "D7"GF|"G"G3d/2
c/2
||
"G"BB Bd/2c/2|BB Bd/2c/2|"G"Bd ga|b2 g2|"C"a3/2b/2 ag|"C"e/f/g/e/ "G
"dB/d/|
"Am"ed cB|"D7"A3d/2c/2|"G"BB Bd/2c/2|BB Bd/2c/2|"G"Bd ga|
b2 g2|"C"a/2b/2a/2g/2 fe/2f/2|"C"g/2a/2g/2e/2 "G"dB/2d/2|"C"eg "D7"fa|"G
"g3
||
